X:1
T:O Heavy Burdened, Weary One
T:O Heavy Burdened, Weary One
T:Cleland Boyd McAfee, 1903
T:Richad W. Adams, 2009
T:© 2009 Richard W. Adams. Reproduce or publish freely for Christian worship or devotions. Courtesy of the Cyber Hymnal™
C:Cleland Boyd McAfee, 1903
Z:© 2009 Richard W. Adams. Reproduce or publish freely for Christian worship or devotions.
Z:Courtesy of the Cyber Hymnal™
%%score ( 1 2 ) ( 3 4 )
L:1/8
Q:1/4=107
M:4/4
K:D
V:1 treble 
V:2 treble 
V:3 bass 
V:4 bass 
V:1
 [DF]2 | [DF]3 [D^E] [DF]2 [^B,F]2 | [CG]3 [^B,F] [CG]4 | [CE]2 [CE][CE] [CA]2 [CG]2 | %4
w: 1.~O|hea- vy bur- dened,|wea- ry one,|Weighed down by sin and|
w: 2.~For|con- dem- na- tion|does not wait,|But His for- give- ness|
w: 3.~There|is a rest for|hum- ble souls,|In ev- er- last- ing|
 [DF]6 [DF]2 | [DF]3 [D^E] [DF]2 [^B,F]2 | [CG]3 [^B,F] [CG]4 | [CE]2 [CA][CG] [DF]2 [CE]2 | %8
w: shame, Come|with your tired, down-|trod- den soul,|Help- less, or blind and|
w: sweet, If|on- ly we con-|fess the past,|And lay it at His|
w: arms, A|re- fuge from the|tears and pain|And all the world’s a-|
 D6 D2 | [DB]3 [DB] [DG]2 [GB]2 | [GB]4 [FA]4 | [FA]2 [EG][DF] [EG]2 [CA]2 | [DF]6 D2 | %13
w: lame; No|mat- ter what op-|press- es,|Come, doubt- er, taste and|see, That|
w: feet. He|lifts the hea- vy|mill- stone,|Fet- ters of ma- ny|years, And|
w: larms. For|God Him- self has|spok- en:|If you would be made|whole, Christ|
 [DB]3 [DB] [Dc]2 [DB]2 | [DA]4 [DF]4 | [CE]2 [CF][CG] [CF]2 E2 | [A,D]6 |] %17
w: God a- lone pos-|ses- ses|Pow- er to set you|free.|
w: in the o- cean|casts them,|So sink- ing all our|fears.|
w: of- fers to the|brok- en|Balm for the sin- sick|soul.|
V:2
 x2 | x8 | x8 | x8 | x8 | x8 | x8 | x8 | D6 D2 | x8 | x8 | x8 | x6 D2 | x8 | x8 | x6 (CA,) | x6 |] %17
V:3
 [D,A,]2 | [D,A,]3 [D,^G,] [D,A,]2 [^D,A,]2 | [E,A,]3 [^D,A,] [E,A,]4 | %3
 [A,,A,]2 [A,,A,][A,,A,] [A,,E,]2 [A,,A,]2 | [D,A,]6 [D,A,]2 | [D,A,]3 [D,^G,] [D,A,]2 [^D,A,]2 | %6
 [E,A,]3 [^D,A,] [E,A,]4 | [A,,A,]2 [A,,A,][A,,A,] [A,,A,]2 [A,,G,]2 | [D,F,]6 [D,F,]2 | %9
 G,3 G, [G,B,]2 [G,D]2 | [D,D]4 [D,D]4 | [A,D]2 A,A, [A,C]2 A,2 | [D,A,]6 [D,F,]2 | %13
 G,3 G, [G,A,]2 G,2 | [D,F,]4 [D,A,]4 | [A,,G,]2 [A,,F,][A,,E,] [A,,A,]2 [A,,G,]2 | [D,F,]6 |] %17
V:4
 x2 | x8 | x8 | x8 | x8 | x8 | x8 | x8 | x8 | G,3 G, x4 | x8 | x2 A,A, x A,2 x | x8 | %13
 G,3 G, x G,2 x | x8 | x8 | x6 |] %17

